X: 36633
T: Shandon Bells
R: jig
M: 6/8
K: Gmajor
|:DB,G, G,B,D|GAG GED|ECA, A,B,D|E2 D EFG|
DB,G, G,B,D|GAG GED|EFG AFD|1 G3 GFE:|2 G3 G2 A||
B2 G GFG|B2 d dBG|FDD ADD|FEF ABc|
B2 G GFG|Bdd dBG|EFG AFD|G3 G2 A|
B2 G GFG|B2 d dBG|F2 D ADD|FEF ABc|
B2 G GFG|Bdd dBG|EFG AFD|G3 GFE||

